X:1
T:Song
T:Schubert's Serenade
T:Standchen
T:Transcribed by F. Liszt
C:Schubert
%%score ( 1 2 ) ( 3 4 )
L:1/8
Q:1/4=58
M:3/4
K:F
V:1 treble transpose=-2 nm="B♭ Clarinet" snm="B♭ Cl."
V:2 treble transpose=-2 
V:3 bass nm="Piano"
V:4 bass 
V:1
[K:G]!mf! z6 | z6 | z6 | z6 | (3BcB !tenuto!e3!mf! B | (3ABA !tenuto!e3 A | B3 A (3AGF | G6 | %8
 [B^db]3 [fa] (3[fa][eg][df] | [eg]6 | (3BcB !tenuto!g3 B | (3ABA !tenuto!f3 e | d3 c (3cBA | %13
 B4 z [Ge] | [Fd]3 [Ac] (3[Ac][GB][FA] | [GB]6 | B>^d g3 f | e>B G3 E |{cd} (3cBc e3 c | B6 | %20
{cd} (3[Ac][^GB][Ac] [ce]3 [Ac] | [GB]6 | B>^d g3 f | e>B ^G3 E |{^cd} (3c^Bc e3 c | B6 | %26
 (3[Afa][^G^e^g][Afa] [^ca^c']3 [A^da] | [^Ge^g]6 | [Ac]4 [ce]>[Ac] | [^GB]3 .[GB].[GB].[GB] | %30
 [AB]3 .[^DB].[FB].[AB] | [^GB]4 .[GB]2 | [A^c]4 [ce]>[Ac] | [^GB]3 .[GB].[GB].[GB] | %34
 [AB]3 .[^DB].[FB].[AB] | [^GB]6 | [^GB]6 || (3B,CB, !tenuto!E3 B, | (3A,B,A, !tenuto!E3 A, | %39
 B,3 A, (3A,G,F, | G,6 | [B^db]3 [fa] (3[fa][eg][df] | [eg]6 | (3B,CB, !tenuto!G3 B, | %44
 (3A,B,A, !tenuto!F3 E | D3 C (3CB,A, | B,2 z2 z [Ge] | [Fd]3 [Ac] (3[Ac][GB][FA] | [GB]6 | %49
 B,>^D G3 F | E>B, G,3 E, |{CD} (3CB,C E3 C | B,6 |{AB} (3[CFA][B,^G][CA] [Ec]3 [CA] | [B,G]6 | %55
 B,>^D G3 F | E>B, ^G,3 E, |{^C^D} (3C^B,C E3 C | B,6 | (3[Afa][^G^e^g][Afa] [^ca^c']3 [A^da] | %60
 [^Ge^g]4 [GB]2 | [Ac]2- (9:8:9[Ac]/[ce]/[ea]/[ac']/[c'e']/[ac']/[ea]/[ce]/[Ac]/ | %62
 [^GB]3 [GB] (3[GB][GB]3/2[GB]/ | [AB]3 .[^DB].[FB].[AB] | [^GB]4 [GB]2 | %65
 [A^c]2- (9:8:9[Ac]/[ce]/[ea]/[a^c']/[c'e']/[ac']/[ea]/[ce]/[Ac]/ | %66
 [^GB]3 [GB] (3[GB][GB]3/2[GB]/ | [AB]2 [FB] .[^DB].[FB].[AB] | [^GB]6 | [^GB]6 || %70
 x2 (3b{/d'}c'b e'2 | x2 (3a{/c'}ba e'2 | x x/ a/ b4- | b>a (3agf g2 | x2 (3b{/d'}c'b g'2 | %75
 x2 (3a{/c'}ba f'2- | f'x/e'/ d'4- | d'>c' (3c'ba b2 | x2 b>^d' g'2- | g'f' e'>b g2 | %80
 x2{c'd'} (3c'bc' e'2 | z z/ [egc']/ [dgb]2 z2 | x2{ab} (3a^ga c'2 | z z/ [ca]/ [Bg]2 z2 | %84
 x2 b>^d' g'2- | g'f' e'>b ^g2 | x2{^c'^d'} (3[ac'][^g^b][ac'] [c'e']2 | z z/ [a^c']/ [^gb]2 z2 | %88
 x2{^caf'} (3[af'][^g^e'][af'] [^c'a']2 | [e^ge']6 || [B,B]>[B,B] [^D^d]>[Dd] [Ff]>[Ff] | %91
 [Ee]3 [^D^d]3 | [B,B]3 [FA^d][FAf]>[FAe] | [FA^d][F,A,B,] [F,A,] [F,A,^D][A,F][F,E] | %94
 ^g3 f (3fe^d | [E^G^c]>[EG^d] [EGe]2 [EGc] z | !arpeggio![A^cf^c']>[^d^d'] [ee']2 [cc'] z | %97
 !arpeggio![^G^ce^c']>[^d^d'] [ee']2 [cc'] z | x2{^c'^d'} (3[ac'][^g^b][ac'] [c'e']2 | %99
 z z/ [a^c']/ [^gb]2 z2 | x2{^caf'} (3[af'][^g^e'][af'] [^c'a']2 | [e^ge']6 | x2 x2 E>E | %103
 z !arpeggio![EFcef] [efc']4 | z !arpeggio![^DFB^df] [Bdfb]4 | %105
 ^A/4B/4^B/4^c/4^^c/4^d/4e/4^e/4 f/4^^f/4^g/4a/4^a/4b/4^b/4^c'/4 (6:4:6^^c'/^d'/e'/^e'/f'/^^f'/ | %106
 [=e'^g'] z z2 [^GB]2 | [Ac]4 [ce]>[Ac] | [^GB]3 .[GB].[GB].[GB] | [AB]3 .[^DB].[FB].[AB] | %110
 [^GB]6 | [B,^GB]6 | (3z ^G,-B (3^Gb^g (3b'^gb | (3^GBG, (3B^G,B G,B | !arpeggio![^G,B,^GB]6 |] %115
V:2
[K:G] x6 | x6 | x6 | x6 | x6 | x6 | x6 | x6 | x6 | x6 | x6 | x6 | x6 | x6 | x6 | x6 | x6 | x6 | %18
 x6 | x6 | x6 | x6 | x6 | x6 | x6 | x6 | x6 | x6 | x6 | x6 | x6 | x6 | x6 | x6 | x6 | x6 | x6 || %37
 x6 | x6 | x6 | x6 | x6 | x6 | x6 | x6 | x6 | x6 | x6 | x6 | x6 | x6 | x6 | x6 | x6 | x6 | x6 | %56
 x6 | x6 | x6 | x6 | x6 | x6 | x6 | x6 | x6 | x6 | x6 | x6 | x6 | x6 || (3B{/d}cB e7/2 B/ | %71
 (3A{/c}BA e7/2 A/ | B7/2 A/ (3.A.G.F | G6 | (3B{/d}cB e7/2 B/ | (3A{/c}BA e7/2 e/ | %76
 d7/2 c/ (3.c.B.A | B6 | B>^d g3 f | e>B G3 E |{cd} (3cBc e7/2 [EGc]/ | [DGB]2 x2 x2 | %82
{AB} (3A^GA c7/2 [CA]/ | [B,G]2 x2 x2 | B>^d g3 f | e>B ^G3 E |{^c^d} (3c^Bc e7/2 [Ac]/ | %87
 [^GB]2 x2 x2 |{f^g} (3[Af][^G^e][Af] x7/2 [^d^d']/ | x6 || x [^DF] x [FA] x A | %91
 A [FA]2 [FA]2 [A,F] | [EF] [EF]^D x x2 | x x5 | [^G^d]4 [FG]2 | x6 | x6 | x6 | %98
{^c^d} (3[Ac][^G^B][Ac] e7/2 [Ac]/ | [^GB]2 x2 x2 |{f^g} (3[Af][^G^e][Af] x7/2 [^df^d']/ | x6 | %102
 !arpeggio![GBegbe']6 | C4 z2 | B,4 z2 | z6 | x6 | x6 | x6 | x6 | x6 | x6 | x6 | x6 | x6 |] %115
V:3
!p! [D,,D,] .[A,D] .[DF] .[A,D] .[DF] .[A,D] | [B,,,B,,] .[B,D] .[DF] .[B,D] .[DF] .[B,D] | %2
 [G,,,G,,] .[B,D] .[DE] .[B,D] .[DE] .[B,D] | [A,,,A,,] .[A,^C] .[CE] .[A,C] .[CE] .[A,C] | %4
 [D,,D,] .[F,A,D] .[A,DF] .[F,A,D] .[A,DF] .[F,A,D] | %5
 [B,,,B,,] .[E,G,D] .[G,DE] .[E,G,D] .[G,DE] .[E,G,D] | %6
 [A,,,A,,] .[E,G,A,^C] .[G,A,CE] .[E,G,A,C] .[G,A,CE] .[E,G,A,C] | %7
 [D,,D,] .[F,A,D] .[A,DF] .[F,A,D] .[A,DF] .[F,A,D] | %8
 [A,,,A,,] .[A,^CE] .[CEG] .[A,CE] .[CEG] .[A,CE] | [D,,D,] .[A,D] .[DF] .[A,D] .[DF] .[A,D] | %10
 [D,,D,] .[A,DF] .[DFA] .[A,DF] .[DFA] .[A,DF] | [B,,,B,,] .[G,DE] .[DEG] .[G,DE] .[DEG] .[G,DE] | %12
 [C,,C,] .[G,B,CE] .[B,CEG] .[G,B,CE] .[B,CEG] .[G,B,CE] | %13
 [F,,,F,,] .[F,A,C] .[A,CF] .[F,A,C] .[A,CF] z | C,, .[C,G,] .[G,B,] .[C,G,] .[G,B,] .[C,G,] | %15
 F,, .[C,F,] .[F,A,] .[C,F,] .[F,A,] .[C,F,] | %16
 [A,,,A,,] .[G,A,^C] .[CGA] .[G,A,C] .[CGA] .[G,A,C] | %17
 [D,,D,] .[F,A,D] .[A,DF] .[F,A,D] .[A,DF] .[F,A,D] | %18
 [B,,,B,,] .[F,B,D] .[B,DF] .[F,B,D] .[B,DF] .[F,B,D] | %19
 [F,,,F,,] .[F,A,C] .[A,CF] .[F,A,C] .[A,CF] .[F,A,C] | [C,,C,] .[G,C] .[CE] .[G,C] .[CE] .[G,C] | %21
 [F,,,F,,] .[F,A,C] .[A,CF] .[F,A,C] .[A,CF] .[F,A,C] | %22
 [A,,,A,,] .[G,A,^C] .[CGA] .[G,A,C] .[CGA] .[G,A,C] | %23
 [D,,D,] .[^F,A,D] .[A,D] .[D,F,A,] .[F,A,D] .[D,F,A,] | %24
 [G,,,G,,] .[G,=B,D] .[B,DG] .[G,B,D] .[B,DG] .[G,B,D] | %25
 [D,,D,] .[^F,A,D] .[A,D^F] .[F,A,D] .[A,DF] .[F,A,D] | %26
 [A,,,A,,] .[E,A,^C] .[A,CG] .[E,A,C] .[A,CG] .[E,A,C] | %27
 D,, .[D,^F,A,] .[F,A,D] .[D,F,A,] .[F,A,D] .[D,F,A,] | %28
 D,, .[D,G,_B,] .[G,B,D] .[D,G,B,] .[G,B,D] .[D,G,B,] | %29
 D,, .[D,^F,A,] .[F,A,D] .[D,F,A,] .[F,A,D] .[D,F,A,] | %30
 [A,,,A,,] .[E,A,] .[A,^C] .[E,A,] .[A,C] .[E,A,] | %31
 D,, .[D,^F,A,] .[F,A,D] .[D,F,A,] .[F,A,D] .[D,F,A,] | %32
 D,, .[D,G,=B,] .[G,B,D] .[D,G,B,] .[G,B,D] .[D,G,B,] | %33
 D,, .[D,^F,A,] .[F,A,D] .[D,F,A,] .[F,A,D] .[D,F,A,] | %34
 [A,,,A,,] .[E,A,] .[A,^C] .[E,A,] .[A,C] .[E,A,] | D,, .[^F,A,] .[A,D] .[F,A,] .[A,D] .[F,A,] | %36
 D,, .[^F,A,] .[A,D] .[F,A,] .[A,D] .[F,A,] || D,, .F, .F .[F,A,] .[DF] .F, | %38
 B,, .E, .E .[E,G,] .[DE] .E, | A,, .[E,^C] .[CE] .[E,C] .[CE] .[F,G,C] | %40
 D,, .[F,A,D] .[A,DF] .[F,A,D] .[A,DF] .[F,A,D] | %41
 [A,,,A,,] .[A,^CE] .[CEG] .[A,CE] .[CEG] .[A,CE] | %42
 [D,,D,] .[F,A,D] .[A,DF] .[F,A,D] .[A,DF] .[F,A,D] | D, .F, .D .[F,A,] .[DF] .F, | %44
 B,, .E, .D .[E,G,] .[DE] .E, | C, .[E,G,] .[G,E] .[E,G,] .[G,E] .[E,B,C] | %46
 F,, .[F,A,C] .[A,CF] .[F,A,C] .[A,CF] .[_A,=B,] | C,, .[C,G,] .[G,B,] .[C,G,] .[G,B,] .[C,G,] | %48
 F,, .[C,F,] .[F,A,] .[C,F,] .[F,A,] .[C,F,] | %49
 A,, .[^C,G,A,] .[G,A,^C] .[C,G,A,] .[G,A,C] .[C,G,A,] | %50
 D,, .[D,F,] .[A,D] .[D,A,] .[A,D] .[F,A,] | B,,, .[F,D] .[B,F] .[F,B,] .[B,F] .[F,B,D] | %52
 F,, .[F,A,C] .[A,CF] .[F,A,C] .[A,CF] .[F,A,C] | [C,,C,] .[E,C] .[G,E] .[E,C] .[G,E] .[E,C] | %54
 [F,,,F,,] .[F,A,C] .[A,CF] .[F,A,C] .[A,CF] .[F,A,C] | %55
 [A,,,A,,] .[^C,G,A,] .[G,A,^C] .[C,G,A,] .[G,A,C] .[C,G,A,] | %56
 [D,,D,] .[D,^F,] .[A,D] .[D,A,] .[A,D] .[F,A,] | [G,,,G,,] .[G,D] .[=B,G] .[G,B,] .[B,G] .[G,D] | %58
 [D,,D,] .[^F,D] .[D^F] .[F,D] .[A,DF] .[F,A,D] | %59
 [A,,,A,,] .[E,A,^C] .[A,CG] .[E,A,C] .[A,CG] .[E,A,C] | %60
 D,, .[D,^F,A,] .[F,A,D] .[D,F,A,] .[F,A,D] .[D,F,A,] | %61
 D,, .[D,G,B,] .[G,B,D] .[D,G,B,] .[G,B,D] .[D,G,B,] | %62
 D,, .[D,^F,A,] .[F,A,D] .[D,F,A,] .[F,A,D] .[D,F,A,] | %63
 [A,,,A,,] .[E,A,] .[A,^C] .[E,A,] .[A,C] .[E,A,] | %64
 D,, .[D,^F,A,] .[F,A,D] .[D,F,A,] .[F,A,D] .[D,F,A,] | %65
 D,, .[D,G,=B,] .[G,B,D] .[D,G,B,] .[G,B,D] .[D,G,B,] | %66
 D,, .[D,^F,A,] .[F,A,D] .[D,F,A,] .[F,A,D] .[D,F,A,] | %67
 [A,,,A,,] .[E,A,] .[A,^C] .[E,A,] .[A,C] .[E,A,] | D,, .[^F,A,] .[A,D] .[F,A,] .[A,D] .[F,A,] | %69
 D,, .[^F,A,] .[A,D] .[F,A,] .[A,D] .[F,A,] || D, .[A,D] .[DF] .[A,D] .[DF] .[A,D] | %71
 B,, .[G,D] .[DE] .[G,D] .[DE] .[G,D] | A,, .[E,A,^C] .[A,CE] .[E,A,C] .[A,CE] .[G,A,C] | %73
 D,, .[F,A,] .[A,D] .[F,A,] .[A,D] .[F,A,] | D, .[A,D] .[D=F] .[A,D] .[DF] .[A,D] | %75
 B,, .[G,D] .[DE] .[G,D] .[DE] .[G,D] | C, .[G,B,C] .[B,CE] .[G,B,C] .[B,CE] .[E,B,C] | %77
 F,, .[F,A,C] .[A,CF] .[F,A,C] .[A,CF] .[F,A,C] | A,, .[A,^CG] .[CGA] .[A,CG] .[CGA] .[A,CG] | %79
 D, .[A,D] .[DF] .[A,D] .[DF] .[F,A,] | B,, .[F,B,D] .[B,DF] .[F,B,D] .[B,DF] .[F,B,D] | %81
 F,, .[F,A,C] .[A,CF] .[F,A,C] .[A,CF] .[F,A,C] | %82
 [C,,C,] .[E,G,C] .[G,CE] .[E,G,C] .[G,CE] .[E,G,C] | %83
 F,, .[F,A,C] .[A,CF] .[F,A,C] .[A,CF] .[F,A,C] | A,, .[A,^CG] .[CGA] .[A,CG] .[CGA] .[A,CG] | %85
 D, .[A,D] .[D^F] .[A,D] .[DF] .[^F,A,] | G,, .[G,=B,D] .[B,DG] .[G,B,D] .[B,DG] .[G,B,D] | %87
 D,, .[^F,A,D] .[A,D^F] .[F,A,D] .[A,DF] .[F,A,D] | %88
 [A,,,A,,] .[E,A,^C] .[A,CG] .[E,A,C] .[A,CG] .[E,G,C] | %89
 [D,,D,] .[^F,A,D] .[A,D^F] .[F,A,D] .[A,DF] .[F,A,D] || %90
 [A,,,A,,] .[^C,E,G,] .[A,,C,E,] .[C,E,G,] .[B,,C,E,] .[C,E,G,] | %91
 [A,,,A,,]3/2 A,,/ ^C,3/2 C,/ [B,,E,]3/2 E,/ | [A,,D,E,G,] [D,E,] ^C, [E,G,^C] B,, [E,G,D] | %93
 [E,G,^C] A,,2 ^C,E,D, | [^A,,^C,^F,^C] .^A,,, .[A,,C,F,].[F,C].[A,,C,F,].[F,C] | %95
 [=B,,^F,=B,] .=B,,, .[B,,D,F,].[D,F,=B,].[B,,D,F,].[D,F,=B,] | %96
 =B,,, .[E,G,=B,] .[G,B,G] .[E,G,B,] .[G,B,G] .[E,G,B,] | %97
 =B,,, .[D,^F,=B,] .[F,B,^F] .[D,F,B,] .[F,B,F] .[D,F,B,] | %98
 G,, .[G,=B,D] .[B,DG] .[G,B,D] .[G,B,G] .[G,B,D] | %99
 D,, .[^F,A,D] .[A,D^F] .[F,A,D] .[A,DF] .[F,A,D] | %100
 [A,,,A,,] .[E,A,^C] .[A,CG] .[E,A,C] .[A,CG] .[E,A,C] | %101
 D,, !arpeggio!.[D,A,D^F]2 .[^F,A,D] .[A,DF] .[F,A,D] | %102
 D,, !arpeggio!.[D,A,DF]2 .[F,A,D] .[A,F] .[F,A,] | %103
 G,,, !arpeggio!.[G,,D,E,B,]2 .[G,,D,E,] .[D,E,B,] .[G,,D,E,] | %104
 A,,, !arpeggio!.[A,,E,G,^C]2 .[A,,E,G,] .[E,G,C] .[A,,E,G,] | z6 | %106
 D,, .[D,^F,] .[F,A,] .[D,F,] .[F,A,] .[D,F,] | D,, .[D,G,] .[G,B,] .[D,G,] .[G,B,] .[D,G,] | %108
 D,, .[D,^F,] .[F,A,] .[D,F,] .[F,A,] .[D,F,] | A,,, .[A,,E,] .[E,G,] .[A,,E,] .[E,G,] .[A,,E,] | %110
 D,, .[A,,D,] .[D,^F,] .[A,,D,] .[D,F,] .[A,,D,] | %111
 D,, .[A,,D,] .[D,^F,] .[A,,D,] .[D,F,] .[A,,D,] | (3D,,- z A,, (3D, A, D (3A d A | %113
 (3D A, D, (3A,, D,, A,, D,, A,, | !arpeggio![D,,A,,D,]6 |] %115
V:4
 x6 | x6 | x6 | x6 | x6 | x6 | x6 | x6 | x6 | x6 | x6 | x6 | x6 | x6 | x6 | x6 | x6 | x6 | x6 | %19
 x6 | x6 | x6 | x6 | x6 | x6 | x6 | x6 | x6 | x6 | x6 | x6 | x6 | x6 | x6 | x6 | x6 | x6 || x6 | %38
 x6 | x6 | x6 | x6 | x6 | x6 | x6 | x6 | x6 | x6 | x6 | x6 | x6 | x6 | x6 | x6 | x6 | x6 | x6 | %57
 x6 | x6 | x6 | x6 | x6 | x6 | x6 | x6 | x6 | x6 | x6 | x6 | x6 || x6 | x6 | x6 | x6 | x6 | x6 | %76
 x6 | x6 | x6 | x6 | x6 | x6 | x6 | x6 | x6 | x6 | x6 | x6 | x6 | x6 || x6 | x6 | x6 | %93
 A,, A,,,3 B,,,2 | x6 | x6 | x6 | x6 | x6 | x6 | x6 | x6 | x6 | x6 | x6 | x6 | x6 | x6 | x6 | x6 | %110
 x6 | x6 | x6 | x6 | x6 |] %115

